public/images/well/outline/1.svg

<svg width="100%" height="100%" preserveAspectRatio="none" viewBox="0 0 180 180" fill="none" xmlns="http://www.w3.org/2000/svg">
<path fill-rule="evenodd" clip-rule="evenodd" d="M180 0H0V180H180V0ZM155.57 89.7848C155.57 126.059 126.059 155.57 89.7848 155.57C53.5103 155.57 24 126.059 24 89.7848C24 53.5103 53.5103 24 89.7848 24C126.059 24 155.57 53.5103 155.57 89.7848Z" fill="white"/>
<path d="M90 180C139.625 180 180 139.625 180 90V89.9838C179.992 40.7704 140.271 0.661881 91.2027 0.0161408C90.7991 0.0161408 90.4036 0 90 0C89.5964 0 89.1928 0.00806904 88.7973 0.0161408C39.7291 0.661881 0.00807175 40.7704 0 89.9838C0 89.9838 0 89.9919 0 90C0 139.625 40.3749 180 90 180ZM90 24.2152C126.274 24.2152 155.785 53.7256 155.785 90C155.785 126.274 126.274 155.785 90 155.785C53.7256 155.785 24.2152 126.274 24.2152 90C24.2152 53.7256 53.7256 24.2152 90 24.2152Z" fill="current"/>
<mask id="mask0_3126_6313" style="mask-type:luminance" maskUnits="userSpaceOnUse" x="0" y="0" width="180" height="180">
<path d="M90 180C40.3749 180 0 139.625 0 90C0 40.3749 40.3749 0 90 0C139.625 0 180 40.3749 180 90C180 139.625 139.625 180 90 180ZM90 24.2152C53.7256 24.2152 24.2152 53.7256 24.2152 90C24.2152 126.274 53.7256 155.785 90 155.785C126.274 155.785 155.785 126.274 155.785 90C155.785 53.7256 126.274 24.2152 90 24.2152Z" fill="current"/>
</mask>
<g mask="url(#mask0_3126_6313)">
<path opacity='0.5' d="M92.0745 91.4292V-45.6855" stroke="white" stroke-miterlimit="10"/>
<path opacity='0.5' d="M92.0747 91.429L80.1285 -45.1611" stroke="white" stroke-miterlimit="10"/>
<path opacity='0.5' d="M92.0743 91.4288L68.2708 -43.6035" stroke="white" stroke-miterlimit="10"/>
<path opacity='0.5' d="M92.0745 91.4285L56.5911 -41.0127" stroke="white" stroke-miterlimit="10"/>
<path opacity='0.5' d="M92.074 91.4294L45.1772 -37.4199" stroke="white" stroke-miterlimit="10"/>
<path opacity='0.5' d="M92.0745 91.4286L34.1274 -32.8359" stroke="white" stroke-miterlimit="10"/>
<path opacity='0.5' d="M92.0748 91.429L23.5214 -27.3145" stroke="white" stroke-miterlimit="10"/>
<path opacity='0.5' d="M92.0747 91.4287L13.4317 -20.8896" stroke="white" stroke-miterlimit="10"/>
<path opacity='0.5' d="M92.0741 91.4293L3.93872 -13.6084" stroke="white" stroke-miterlimit="10"/>
<path opacity='0.5' d="M92.0742 91.4285L-4.87555 -5.5293" stroke="white" stroke-miterlimit="10"/>
<path opacity='0.5' d="M92.0746 91.4284L-12.9631 3.29297" stroke="white" stroke-miterlimit="10"/>
<path opacity='0.5' d="M92.0742 91.4292L-20.2442 12.7861" stroke="white" stroke-miterlimit="10"/>
<path opacity='0.5' d="M92.0743 91.4293L-26.6693 22.876" stroke="white" stroke-miterlimit="10"/>
<path opacity='0.5' d="M92.0743 91.4295L-32.1902 33.4824" stroke="white" stroke-miterlimit="10"/>
<path opacity='0.5' d="M92.0746 91.4291L-36.7747 44.5322" stroke="white" stroke-miterlimit="10"/>
<path opacity='0.5' d="M92.0744 91.4287L-40.3668 55.9453" stroke="white" stroke-miterlimit="10"/>
<path opacity='0.5' d="M92.0745 91.4286L-42.9578 67.625" stroke="white" stroke-miterlimit="10"/>
<path opacity='0.5' d="M92.0748 91.4296L-44.5154 79.4834" stroke="white" stroke-miterlimit="10"/>
<path opacity='0.5' d="M92.0744 91.4287H-45.0404" stroke="white" stroke-miterlimit="10"/>
<path opacity='0.5' d="M92.0748 91.4287L-44.5154 103.383" stroke="white" stroke-miterlimit="10"/>
<path opacity='0.5' d="M92.0745 91.4287L-42.9578 115.24" stroke="white" stroke-miterlimit="10"/>
<path opacity='0.5' d="M92.0744 91.4287L-40.3668 126.92" stroke="white" stroke-miterlimit="10"/>
<path opacity='0.5' d="M92.0746 91.4287L-36.7747 138.326" stroke="white" stroke-miterlimit="10"/>
<path opacity='0.5' d="M92.0743 91.4287L-32.1902 149.384" stroke="white" stroke-miterlimit="10"/>
<path opacity='0.5' d="M92.0743 91.4287L-26.6693 159.99" stroke="white" stroke-miterlimit="10"/>
<path opacity='0.5' d="M92.0742 91.4287L-20.2442 170.08" stroke="white" stroke-miterlimit="10"/>
<path opacity='0.5' d="M92.0746 91.4287L-12.9631 179.572" stroke="white" stroke-miterlimit="10"/>
<path opacity='0.5' d="M92.0742 91.4287L-4.87555 188.387" stroke="white" stroke-miterlimit="10"/>
<path opacity='0.5' d="M92.0741 91.4287L3.93872 196.474" stroke="white" stroke-miterlimit="10"/>
<path opacity='0.5' d="M92.0747 91.4287L13.4317 203.755" stroke="white" stroke-miterlimit="10"/>
<path opacity='0.5' d="M92.0748 91.4287L23.5214 210.18" stroke="white" stroke-miterlimit="10"/>
<path opacity='0.5' d="M92.0745 91.4287L34.1274 215.701" stroke="white" stroke-miterlimit="10"/>
<path opacity='0.5' d="M92.074 91.4287L45.1772 220.278" stroke="white" stroke-miterlimit="10"/>
<path opacity='0.5' d="M92.0745 91.4287L56.5911 223.878" stroke="white" stroke-miterlimit="10"/>
<path opacity='0.5' d="M92.0743 91.4287L68.2708 226.469" stroke="white" stroke-miterlimit="10"/>
<path opacity='0.5' d="M92.0747 91.4287L80.1285 228.027" stroke="white" stroke-miterlimit="10"/>
<path opacity='0.5' d="M92.0745 91.4287V228.552" stroke="white" stroke-miterlimit="10"/>
<path opacity='0.5' d="M92.0745 91.4287L104.029 228.027" stroke="white" stroke-miterlimit="10"/>
<path opacity='0.5' d="M92.0745 91.4287L115.886 226.469" stroke="white" stroke-miterlimit="10"/>
<path opacity='0.5' d="M92.0745 91.4287L127.566 223.878" stroke="white" stroke-miterlimit="10"/>
<path opacity='0.5' d="M92.0745 91.4287L138.979 220.278" stroke="white" stroke-miterlimit="10"/>
<path opacity='0.5' d="M92.0745 91.4287L150.03 215.701" stroke="white" stroke-miterlimit="10"/>
<path opacity='0.5' d="M92.0745 91.4287L160.636 210.18" stroke="white" stroke-miterlimit="10"/>
<path opacity='0.5' d="M92.0745 91.4287L170.726 203.755" stroke="white" stroke-miterlimit="10"/>
<path opacity='0.5' d="M92.0745 91.4287L180.218 196.474" stroke="white" stroke-miterlimit="10"/>
<path opacity='0.5' d="M92.0745 91.4287L189.032 188.387" stroke="white" stroke-miterlimit="10"/>
<path opacity='0.5' d="M92.0745 91.4287L197.12 179.572" stroke="white" stroke-miterlimit="10"/>
<path opacity='0.5' d="M92.0745 91.4287L204.401 170.08" stroke="white" stroke-miterlimit="10"/>
<path opacity='0.5' d="M92.0745 91.4287L210.826 159.99" stroke="white" stroke-miterlimit="10"/>
<path opacity='0.5' d="M92.0745 91.4287L216.347 149.384" stroke="white" stroke-miterlimit="10"/>
<path opacity='0.5' d="M92.0745 91.4287L220.924 138.326" stroke="white" stroke-miterlimit="10"/>
<path opacity='0.5' d="M92.0745 91.4287L224.524 126.92" stroke="white" stroke-miterlimit="10"/>
<path opacity='0.5' d="M92.0745 91.4287L227.115 115.24" stroke="white" stroke-miterlimit="10"/>
<path opacity='0.5' d="M92.0745 91.4287L228.673 103.383" stroke="white" stroke-miterlimit="10"/>
<path opacity='0.5' d="M92.0745 91.4287H229.197" stroke="white" stroke-miterlimit="10"/>
<path opacity='0.5' d="M92.0745 91.4296L228.673 79.4834" stroke="white" stroke-miterlimit="10"/>
<path opacity='0.5' d="M92.0745 91.4286L227.115 67.625" stroke="white" stroke-miterlimit="10"/>
<path opacity='0.5' d="M92.0745 91.4287L224.524 55.9453" stroke="white" stroke-miterlimit="10"/>
<path opacity='0.5' d="M92.0745 91.4291L220.924 44.5322" stroke="white" stroke-miterlimit="10"/>
<path opacity='0.5' d="M92.0745 91.4295L216.347 33.4824" stroke="white" stroke-miterlimit="10"/>
<path opacity='0.5' d="M92.0745 91.4293L210.826 22.876" stroke="white" stroke-miterlimit="10"/>
<path opacity='0.5' d="M92.0745 91.4292L204.401 12.7861" stroke="white" stroke-miterlimit="10"/>
<path opacity='0.5' d="M92.0745 91.4284L197.12 3.29297" stroke="white" stroke-miterlimit="10"/>
<path opacity='0.5' d="M92.0745 91.4285L189.032 -5.5293" stroke="white" stroke-miterlimit="10"/>
<path opacity='0.5' d="M92.0745 91.4293L180.218 -13.6084" stroke="white" stroke-miterlimit="10"/>
<path opacity='0.5' d="M92.0745 91.4287L170.726 -20.8896" stroke="white" stroke-miterlimit="10"/>
<path opacity='0.5' d="M92.0745 91.429L160.636 -27.3145" stroke="white" stroke-miterlimit="10"/>
<path opacity='0.5' d="M92.0745 91.4286L150.03 -32.8359" stroke="white" stroke-miterlimit="10"/>
<path opacity='0.5' d="M92.0745 91.4294L138.979 -37.4199" stroke="white" stroke-miterlimit="10"/>
<path opacity='0.5' d="M92.0745 91.4285L127.566 -41.0127" stroke="white" stroke-miterlimit="10"/>
<path opacity='0.5' d="M92.0745 91.4288L115.886 -43.6035" stroke="white" stroke-miterlimit="10"/>
<path opacity='0.5' d="M92.0745 91.429L104.029 -45.1611" stroke="white" stroke-miterlimit="10"/>
</g>
</svg>

<svg preserveAspectRatio="none" viewBox="0 0 180 180" fill="none" xmlns="http://www.w3.org/2000/svg"><path fill-rule="evenodd" clip-rule="evenodd" d="M180 0H0v180h180V0Zm-24.43 89.785c0 36.274-29.511 65.785-65.785 65.785C53.51 155.57 24 126.059 24 89.785 24 53.51 53.51 24 89.785 24c36.274 0 65.785 29.51 65.785 65.785Z" fill="#fff"/><path d="M90 180c49.625 0 90-40.375 90-90v-.016C179.992 40.77 140.271.662 91.203.016 90.799.016 90.403 0 90 0c-.404 0-.807.008-1.203.016C39.73.662.008 40.77 0 89.984V90c0 49.625 40.375 90 90 90Zm0-155.785c36.274 0 65.785 29.51 65.785 65.785 0 36.274-29.511 65.785-65.785 65.785S24.215 126.274 24.215 90 53.725 24.215 90 24.215Z" fill="current"/><mask id="a" style="mask-type:luminance" maskUnits="userSpaceOnUse" x="0" y="0" width="180" height="180"><path d="M90 180c-49.625 0-90-40.375-90-90S40.375 0 90 0s90 40.375 90 90-40.375 90-90 90Zm0-155.785c-36.274 0-65.785 29.51-65.785 65.785 0 36.274 29.51 65.785 65.785 65.785 36.274 0 65.785-29.511 65.785-65.785S126.274 24.215 90 24.215Z" fill="current"/></mask><g mask="url(#a)" stroke="#fff" stroke-miterlimit="10"><path opacity=".5" d="M92.075 91.43V-45.686M92.075 91.429 80.128-45.161M92.074 91.429 68.271-43.603M92.075 91.428 56.59-41.011M92.074 91.43 45.177-37.42M92.075 91.429 34.127-32.836M92.075 91.429 23.52-27.314M92.075 91.429 13.432-20.89M92.074 91.43 3.94-13.609M92.074 91.428-4.876-5.528M92.075 91.428-12.963 3.293M92.074 91.43-20.244 12.785M92.074 91.43-26.669 22.875M92.074 91.43-32.19 33.482M92.075 91.43l-128.85-46.898M92.074 91.429l-132.44-35.484M92.075 91.429-42.958 67.625M92.075 91.43l-136.59-11.947M92.074 91.429H-45.04M92.075 91.429l-136.59 11.954M92.075 91.429-42.958 115.24M92.074 91.429l-132.44 35.491M92.075 91.429l-128.85 46.897M92.074 91.429-32.19 149.384M92.074 91.429-26.669 159.99M92.074 91.429-20.244 170.08M92.075 91.429l-105.038 88.143M92.074 91.429l-96.95 96.958M92.074 91.429 3.94 196.474M92.075 91.429 13.432 203.755M92.075 91.429 23.52 210.18M92.075 91.429 34.127 215.7M92.074 91.429 45.177 220.278M92.075 91.429 56.59 223.878M92.074 91.429l-23.803 135.04M92.075 91.429 80.128 228.027M92.075 91.429v137.123M92.075 91.429l11.954 136.598M92.075 91.429l23.811 135.04M92.075 91.429l35.491 132.449M92.075 91.429l46.904 128.849M92.075 91.429 150.03 215.7M92.075 91.429l68.561 118.751M92.075 91.429l78.651 112.326M92.075 91.429l88.143 105.045M92.075 91.429l96.957 96.958M92.075 91.429l105.045 88.143M92.075 91.429 204.4 170.08M92.075 91.429l118.751 68.561M92.075 91.429l124.272 57.955M92.075 91.429l128.849 46.897M92.075 91.429l132.449 35.491M92.075 91.429l135.04 23.811M92.075 91.429l136.598 11.954M92.075 91.429h137.122M92.075 91.43l136.598-11.947M92.075 91.429l135.04-23.804M92.075 91.429l132.449-35.484M92.075 91.43l128.849-46.898M92.075 91.43l124.272-57.948M92.075 91.43l118.751-68.554M92.075 91.43 204.4 12.785M92.075 91.428 197.12 3.293M92.075 91.428l96.957-96.957M92.075 91.43l88.143-105.038M92.075 91.429 170.726-20.89M92.075 91.429l68.561-118.743M92.075 91.429 150.03-32.836M92.075 91.43l46.904-128.85M92.075 91.428l35.491-132.44M92.075 91.429l23.811-135.032M92.075 91.429l11.954-136.59"/></g></svg>
